static/img/logo-84codes.svg

<?xml version="1.0" encoding="UTF-8"?>
<svg width="154px" height="56px" viewBox="0 0 154 56" version="1.1" xmlns="http://www.w3.org/2000/svg" xmlns:xlink="http://www.w3.org/1999/xlink">
    <!-- Generator: Sketch 48.2 (47327) - http://www.bohemiancoding.com/sketch -->
    <title>Artboard</title>
    <desc>Created with Sketch.</desc>
    <defs>
        <path d="M23,55 C10.2974508,55 0,44.7025492 0,32 C0,19.2974508 10.2974508,9 23,9 C35.7025492,9 46,19.2974508 46,32 C46,44.7025492 35.7025492,55 23,55 Z M22,36.8080475 C22,36.2908945 21.9286995,35.7876014 21.7860963,35.298153 C21.643493,34.8087047 21.4390982,34.3469679 21.1729055,33.9129288 C20.9067129,33.4788897 20.5834838,33.081796 20.2032086,32.7216359 C19.8229333,32.3614758 19.3998835,32.0521121 18.9340463,31.7935356 C19.2287596,31.5349591 19.4925716,31.2440649 19.7254902,30.9208443 C19.9584088,30.5976237 20.1556736,30.2536298 20.3172906,29.8888522 C20.4789075,29.5240747 20.6048718,29.1500679 20.6951872,28.7668206 C20.7855025,28.3835733 20.8306595,28.0026404 20.8306595,27.6240106 C20.8306595,26.8482811 20.6524082,26.1210456 20.2959002,25.4422823 C19.9393922,24.763519 19.4497952,24.1678786 18.8270945,23.655343 C18.2043938,23.1428075 17.479505,22.7387878 16.6524064,22.4432718 C15.8253078,22.1477558 14.9411812,22 14,22 C13.0683257,22 12.1889524,22.1477558 11.3618538,22.4432718 C10.5347552,22.7387878 9.81224314,23.1428075 9.1942959,23.655343 C8.57634866,24.1678786 8.08912834,24.763519 7.73262032,25.4422823 C7.3761123,26.1210456 7.19786096,26.8482811 7.19786096,27.6240106 C7.19786096,28.0026404 7.24064128,28.3835733 7.32620321,28.7668206 C7.41176513,29.1500679 7.53772941,29.521766 7.70409982,29.8819261 C7.87047023,30.2420862 8.07011173,30.5837715 8.3030303,30.9069921 C8.53594888,31.2302127 8.79976086,31.5164895 9.09447415,31.7658311 C8.61913012,32.0244076 8.19132692,32.33608 7.81105169,32.7008575 C7.43077647,33.0656351 7.1051707,33.4650374 6.8342246,33.8990765 C6.5632785,34.3331156 6.35650695,34.7971611 6.21390374,35.2912269 C6.07130053,35.7852927 6,36.2908945 6,36.8080475 C6,37.7038303 6.20914824,38.5303392 6.62745098,39.2875989 C7.04575373,40.0448587 7.61853469,40.6982163 8.34581105,41.2476913 C9.07308742,41.7971663 9.92156378,42.2265816 10.8912656,42.5359499 C11.8609674,42.8453182 12.8972019,43 14,43 C15.1027981,43 16.1390326,42.8453182 17.1087344,42.5359499 C18.0784362,42.2265816 18.9269126,41.7971663 19.6541889,41.2476913 C20.3814653,40.6982163 20.9542463,40.0448587 21.372549,39.2875989 C21.7908518,38.5303392 22,37.7038303 22,36.8080475 Z M17,28.018018 C17,28.2982997 16.934267,28.5585574 16.802799,28.7987988 C16.671331,29.0390402 16.4932157,29.2472464 16.2684478,29.4234234 C16.04368,29.5996005 15.7786275,29.7397392 15.4732824,29.8438438 C15.1679374,29.9479485 14.8456336,30 14.5063613,30 C14.1586073,30 13.8320626,29.9479485 13.5267176,29.8438438 C13.2213725,29.7397392 12.95632,29.5996005 12.7315522,29.4234234 C12.5067843,29.2472464 12.328669,29.0390402 12.197201,28.7987988 C12.065733,28.5585574 12,28.2982997 12,28.018018 C12,27.7377363 12.065733,27.4754767 12.197201,27.2312312 C12.328669,26.9869858 12.5067843,26.7727737 12.7315522,26.5885886 C12.95632,26.4044035 13.2213725,26.2602608 13.5267176,26.1561562 C13.8320626,26.0520515 14.1586073,26 14.5063613,26 C14.8456336,26 15.1679374,26.0520515 15.4732824,26.1561562 C15.7786275,26.2602608 16.04368,26.4044035 16.2684478,26.5885886 C16.4932157,26.7727737 16.671331,26.9869858 16.802799,27.2312312 C16.934267,27.4754767 17,27.7377363 17,28.018018 Z M17,37.0669643 C17,37.4955379 16.9089543,37.8883911 16.7268603,38.2455357 C16.5447662,38.6026804 16.2949199,38.910713 15.977314,39.1696429 C15.659708,39.4285727 15.287056,39.6316957 14.8593466,39.7790179 C14.4316373,39.92634 13.9764089,40 13.4936479,40 C13.0108869,40 12.5577759,39.92634 12.1343013,39.7790179 C11.7108267,39.6316957 11.340292,39.4285727 11.022686,39.1696429 C10.7050801,38.910713 10.4552338,38.6026804 10.2731397,38.2455357 C10.0910457,37.8883911 10,37.4955379 10,37.0669643 C10,36.6383907 10.0910457,36.2388411 10.2731397,35.8683036 C10.4552338,35.497766 10.7050801,35.1741085 11.022686,34.8973214 C11.340292,34.6205343 11.7108267,34.4017865 12.1343013,34.2410714 C12.5577759,34.0803563 13.0108869,34 13.4936479,34 C13.9764089,34 14.4316373,34.0803563 14.8593466,34.2410714 C15.287056,34.4017865 15.659708,34.6205343 15.977314,34.8973214 C16.2949199,35.1741085 16.5447662,35.497766 16.7268603,35.8683036 C16.9089543,36.2388411 17,36.6383907 17,37.0669643 Z M40,38.9972106 L40,35.0083682 L38.005231,35.0083682 L38.005231,25.0083682 L34.0017437,25.0083682 L34.0017437,35.0083682 L28.4917175,35.0083682 L30.2353967,23 L26.2319093,23 L24,38.9972106 L34.0017437,38.9972106 L34.0017437,43 L38.005231,43 L38.005231,38.9972106 L40,38.9972106 Z" id="path-1"></path>
    </defs>
    <g id="Page-1" stroke="none" stroke-width="1" fill="none" fill-rule="evenodd">
        <g id="Artboard">
            <mask id="mask-2" fill="white">
                <use xlink:href="#path-1"></use>
            </mask>
            <use id="Icon" fill="#7A7C7C" xlink:href="#path-1"></use>
            <path d="M90.7263285,37.6772555 C89.717281,37.8469255 88.6668403,37.9545067 87.575,38 C86.9416635,40.800014 85.691676,43.0416582 83.825,44.725 C81.958324,46.4083418 79.8416785,47.25 77.475,47.25 C75.47499,47.25 73.7666737,46.7666715 72.35,45.8 C71.3660374,45.1285902 70.5469073,44.3044254 69.8925988,43.3274926 C68.7681869,44.3615354 67.5333592,45.2118175 66.25,45.675 C64.15625,46.4306641 61.9583435,47.25 59.925,47.25 C56.658317,47.25 54.1166757,46.3250093 52.3,44.475 C50.4833242,42.6249908 49.575,40.1833485 49.575,37.15 C49.575,34.4499865 50.108328,32.0833435 51.175,30.05 C52.241672,28.0166565 53.6249915,26.4500055 55.325,25.35 C57.0250085,24.2499945 58.808324,23.7 60.675,23.7 C62.5083425,23.7 63.9333282,24.2416613 64.95,25.325 C65.9666717,26.4083388 66.475,27.7999915 66.475,29.5 C66.475,30.900007 66.1666697,32.0833285 65.55,33.05 C64.9333302,34.0166715 64.125005,34.5 63.125,34.5 C62.4916635,34.5 61.9833352,34.3500015 61.6,34.05 C61.2166647,33.7499985 61.025,33.333336 61.025,32.8 C61.025,32.5666655 61.058333,32.3000015 61.125,32 C61.191667,31.6999985 61.2416665,31.483334 61.275,31.35 C61.4416675,30.8499975 61.525,30.3833355 61.525,29.95 C61.525,29.5166645 61.4166677,29.1833345 61.2,28.95 C60.9833322,28.7166655 60.675002,28.6 60.275,28.6 C59.5083295,28.6 58.79167,28.9416633 58.125,29.625 C57.45833,30.3083368 56.925002,31.2333275 56.525,32.4 C56.124998,33.5666725 55.925,34.849993 55.925,36.25 C55.925,40.116686 57.6083165,42.05 60.975,42.05 C62.3416735,42.05 63.8166587,41.5916713 65.4,40.675 C66.32547,40.1392016 67.2423909,39.4468219 68.1507719,38.5978527 C68.0669238,37.9971487 68.025,37.3811985 68.025,36.75 C68.025,34.216654 68.5083285,31.9583433 69.475,29.975 C70.4416715,27.9916568 71.7749915,26.4416723 73.475,25.325 C75.1750085,24.2083278 77.058323,23.65 79.125,23.65 C81.658346,23.65 83.6999923,24.5249913 85.25,26.275 C86.8000077,28.0250088 87.708332,30.1833205 87.975,32.75 C89.1868644,32.672647 90.5782159,32.4556827 92.1490805,32.0991028 C92.2217036,31.940161 92.2970101,31.7821268 92.375,31.625 C93.508339,29.3416553 95.0666567,27.4750072 97.05,26.025 C99.0333433,24.5749927 101.258321,23.716668 103.725,23.45 C104.358337,16.983301 105.566658,11.4583563 107.35,6.875 C109.133342,2.29164375 111.474986,0 114.375,0 C115.808341,0 116.999995,0.6499935 117.95,1.95 C118.900005,3.2500065 119.375,5.2166535 119.375,7.85 C119.375,11.583352 118.458342,15.949975 116.625,20.95 C114.791657,25.950025 112.341682,31.083307 109.275,36.35 C109.408334,38.283343 109.699998,39.6666625 110.15,40.5 C110.600002,41.3333375 111.174996,41.75 111.875,41.75 C112.775004,41.75 113.691662,41.350004 114.625,40.55 C115.143163,40.1058601 115.758923,39.4973436 116.472285,38.7244437 C116.374095,38.0518493 116.325,37.3437017 116.325,36.6 C116.325,34.2999885 116.808328,32.1583433 117.775,30.175 C118.741671,28.1916568 120.083325,26.6166725 121.8,25.45 C123.516675,24.2833275 125.458322,23.7 127.625,23.7 C129.558343,23.7 131.108328,24.2749943 132.275,25.425 C133.441673,26.5750058 134.025,28.1333235 134.025,30.1 C134.025,32.4000115 133.200008,34.3749918 131.55,36.025 C129.899992,37.6750082 127.108353,38.9833285 123.175,39.95 C124.008337,41.483341 125.591655,42.25 127.925,42.25 C129.425007,42.25 131.133324,41.7250053 133.05,40.675 C134.242869,40.0215152 135.335666,39.2421535 136.328403,38.336905 C137.576016,36.73868 138.558208,35.3763868 139.275,34.25 C139.875003,33.2833285 140.48333,32.13334 141.1,30.8 C141.71667,29.46666 142.524995,27.6500115 143.525,25.35 C144.158337,23.883326 145.47499,23.15 147.475,23.15 C148.408338,23.15 149.058332,23.2333325 149.425,23.4 C149.791669,23.5666675 149.975,23.8333315 149.975,24.2 C149.975,24.400001 149.908334,24.7166645 149.775,25.15 C149.641666,25.5833355 149.458335,26.0166645 149.225,26.45 C148.624997,27.650006 148.325,28.6666625 148.325,29.5 C148.325,30.0000025 148.499998,30.549997 148.85,31.15 C149.200002,31.750003 149.741663,32.4999955 150.475,33.4 C151.541672,34.800007 152.349997,35.9916617 152.9,36.975 C153.450003,37.9583382 153.725,39.0333275 153.725,40.2 C153.725,41.600007 153.400003,42.9249937 152.75,44.175 C152.099997,45.4250063 151.191673,46.4333295 150.025,47.2 C148.858328,47.9666705 147.525008,48.35 146.025,48.35 C144.291658,48.35 142.966671,47.950004 142.05,47.15 C141.133329,46.349996 140.675,45.450005 140.675,44.45 C140.675,43.583329 140.991664,42.8333365 141.625,42.2 C142.258336,41.5666635 143.191661,41.25 144.425,41.25 C144.858336,41.25 145.366664,41.2916662 145.95,41.375 C146.533336,41.4583338 146.974998,41.5166665 147.275,41.55 C147.241667,40.683329 147.050002,39.8666705 146.7,39.1 C146.349998,38.3333295 145.908336,37.5916702 145.375,36.875 C144.841664,36.1583298 144.341669,35.533336 143.875,35 C142.841661,36.9666765 141.816672,38.5999935 140.8,39.9 C140.614729,40.1369043 140.426414,40.371594 140.235055,40.6040694 C140.117549,40.820882 139.980864,41.0195254 139.825,41.2 C139.385555,41.7344596 138.881579,42.2541054 138.31307,42.7589391 C138.038866,43.0430395 137.75951,43.323393 137.475,43.6 C137.036657,44.0383432 136.580528,44.3165642 136.106605,44.4346664 C135.632658,44.7462614 135.130457,45.0513724 134.6,45.35 C132.349989,46.616673 129.941679,47.25 127.375,47.25 C123.874982,47.25 121.158343,46.3000095 119.225,44.4 C118.872103,44.0531873 118.551414,43.6830531 118.262932,43.2895971 C117.441083,44.0920006 116.578442,44.8204658 115.675,45.475 C114.041658,46.6583392 112.425008,47.25 110.825,47.25 C108.291654,47.25 106.35834,45.7666815 105.025,42.8 C103.624993,44.5666755 102.400005,45.749997 101.35,46.35 C100.299995,46.950003 99.075007,47.25 97.675,47.25 C95.6416565,47.25 93.9666732,46.4916743 92.65,44.975 C91.3333267,43.4583258 90.675,41.4833455 90.675,39.05 C90.675,38.5866304 90.6921095,38.129049 90.7263285,37.6772555 Z M77.875,41.95 C78.941672,41.95 79.8666627,41.516671 80.65,40.65 C81.4333372,39.783329 81.958332,38.5333415 82.225,36.9 C81.1916615,36.1999965 80.4000027,35.283339 79.85,34.15 C79.2999972,33.016661 79.025,31.816673 79.025,30.55 C79.025,30.016664 79.0749995,29.483336 79.175,28.95 L78.925,28.95 C77.59166,28.95 76.4833378,29.5916603 75.6,30.875 C74.7166622,32.1583397 74.275,33.966655 74.275,36.3 C74.275,38.1333425 74.6333298,39.5333285 75.35,40.5 C76.0666702,41.4666715 76.9083285,41.95 77.875,41.95 Z M99.425,42.2 C100.058336,42.2 100.691664,41.9416693 101.325,41.425 C101.958337,40.9083307 102.758329,39.950007 103.725,38.55 C103.391665,36.749991 103.225,34.7333445 103.225,32.5 C103.225,31.699996 103.258333,30.400009 103.325,28.6 C101.491658,29.1666695 99.9666728,30.3916572 98.75,32.275 C97.5333272,34.1583428 96.925,36.2499885 96.925,38.55 C96.925,40.9833455 97.758325,42.2 99.425,42.2 Z M113.825,4.9 C113.191664,4.9 112.558336,6.02498875 111.925,8.275 C111.291663,10.5250112 110.750002,13.4666485 110.3,17.1 C109.849998,20.7333515 109.525001,24.5333135 109.325,28.5 C113.058352,20.366626 114.925,13.833358 114.925,8.9 C114.925,7.633327 114.816668,6.6500035 114.6,5.95 C114.383332,5.2499965 114.125001,4.9 113.825,4.9 Z M126.775,28.6 C125.541661,28.6 124.500004,29.3166595 123.65,30.75 C122.799996,32.1833405 122.375,33.9166565 122.375,35.95 L122.375,36.05 C124.341677,35.583331 125.891661,34.883338 127.025,33.95 C128.158339,33.016662 128.725,31.9333395 128.725,30.7 C128.725,30.0666635 128.550002,29.5583352 128.2,29.175 C127.849998,28.7916647 127.375003,28.6 126.775,28.6 Z" id="codes" fill="#7A7C7C"></path>
        </g>
    </g>
</svg>

<svg version="1.1" viewBox="0 0 154 56" xmlns="http://www.w3.org/2000/svg" xmlns:xlink="http://www.w3.org/1999/xlink">
  <defs>
    <path id="a" d="m23 55c-12.703 0-23-10.297-23-23s10.297-23 23-23 23 10.297 23 23-10.297 23-23 23zm-1-18.192c0-.51715-.0713-1.0204-.2139-1.5099-.1426-.48945-.347-.95119-.61319-1.3852-.26619-.43404-.58942-.83113-.9697-1.1913-.38028-.36016-.80333-.66952-1.2692-.9281.29471-.25858.55853-.54947.79144-.87269s.43018-.66721.5918-1.032c.16162-.36478.28758-.73878.3779-1.122.090315-.38325.13547-.76418.13547-1.1428 0-.77573-.17825-1.503-.53476-2.1817s-.8461-1.2744-1.4688-1.7869c-.6227-.51254-1.3476-.91656-2.1747-1.2121s-1.7112-.44327-2.6524-.44327c-.93167 0-1.811.14776-2.6381.44327s-1.5496.69954-2.1676 1.2121c-.61795.51254-1.1052 1.1082-1.4617 1.7869s-.53476 1.406-.53476 2.1817c0 .37863.04278.75956.12834 1.1428.085562.38325.21153.75495.3779 1.1151s.36601.70185.59893 1.0251c.23292.32322.49673.6095.79144.85884-.47534.25858-.90315.57025-1.2834.93503-.38028.36478-.70588.76418-.97683 1.1982s-.47772.89808-.62032 1.3922-.2139.99967-.2139 1.5168c0 .89578.20915 1.7223.62745 2.4796.4183.75726.99108 1.4106 1.7184 1.9601.72728.54948 1.5758.97889 2.5455 1.2883.9697.30937 2.0059.46405 3.1087.46405s2.139-.15468 3.1087-.46405 1.8182-.73878 2.5455-1.2883c.72728-.54948 1.3001-1.2028 1.7184-1.9601.4183-.75726.62745-1.5838.62745-2.4796zm-5-8.79c0 .28028-.065733.54054-.1972.78078s-.30958.44845-.53435.62462c-.22477.17618-.48982.31632-.79517.42042-.30534.1041-.62765.15616-.96692.15616-.34775 0-.6743-.052052-.97964-.15616-.30535-.1041-.5704-.24424-.79517-.42042-.22477-.17618-.40288-.38438-.53435-.62462s-.1972-.5005-.1972-.78078.065733-.54254.1972-.78679c.13147-.24425.30958-.45846.53435-.64264.22477-.18419.48982-.32833.79517-.43243.30534-.1041.63189-.15616.97964-.15616.33927 0 .66158.052052.96692.15616.30535.1041.5704.24825.79517.43243.22477.18419.40288.3984.53435.64264.13147.24425.1972.50651.1972.78679zm0 9.0489c0 .42857-.091046.82143-.27314 1.1786-.18209.35714-.43194.66518-.74955.92411-.31761.25893-.69026.46205-1.118.60938-.42771.14732-.88294.22098-1.3657.22098s-.93587-.07366-1.3593-.22098c-.42347-.14732-.79401-.35045-1.1116-.60938-.31761-.25893-.56745-.56696-.74955-.92411-.18209-.35714-.27314-.75-.27314-1.1786s.091046-.82812.27314-1.1987c.18209-.37054.43194-.6942.74955-.97098.31761-.27679.68814-.49553 1.1116-.65625s.87659-.24107 1.3593-.24107.93799.080356 1.3657.24107c.42771.16072.80036.37946 1.118.65625.31761.27679.56745.60044.74955.97098.18209.37054.27314.77009.27314 1.1987zm23 1.9302v-3.9888h-1.9948v-10h-4.0035v10h-5.51l1.7437-12.008h-4.0035l-2.2319 15.997h10.002v4.0028h4.0035v-4.0028h1.9948z"/>
  </defs>
  <g fill="none" fill-rule="evenodd">
    <mask fill="white">
      <use xlink:href="#a"/>
    </mask>
    <use fill="#7A7C7C" xlink:href="#a"/>
    <path d="m90.726 37.677c-1.009.16967-2.0595.27725-3.1513.32274-.63334 2.8-1.8833 5.0417-3.75 6.725s-3.9833 2.525-6.35 2.525c-2 0-3.7083-.48333-5.125-1.45-.98396-.67141-1.8031-1.4956-2.4574-2.4725-1.1244 1.034-2.3592 1.8843-3.6426 2.3475-2.0938.75566-4.2917 1.575-6.325 1.575-3.2667 0-5.8083-.92499-7.625-2.775-1.8167-1.85-2.725-4.2917-2.725-7.325 0-2.7.53333-5.0667 1.6-7.1s2.45-3.6 4.15-4.7 3.4833-1.65 5.35-1.65c1.8333 0 3.2583.54166 4.275 1.625 1.0167 1.0833 1.525 2.475 1.525 4.175 0 1.4-.30833 2.5833-.925 3.55-.61667.96667-1.425 1.45-2.425 1.45-.63334 0-1.1417-.15-1.525-.45-.38334-.3-.575-.71666-.575-1.25 0-.23333.033333-.5.1-.8s.11667-.51667.15-.65c.16667-.5.25-.96666.25-1.4s-.10833-.76667-.325-1c-.21667-.23333-.525-.35-.925-.35-.76667 0-1.4833.34166-2.15 1.025-.66667.68334-1.2 1.6083-1.6 2.775s-.6 2.45-.6 3.85c0 3.8667 1.6833 5.8 5.05 5.8 1.3667 0 2.8417-.45833 4.425-1.375.92547-.5358 1.8424-1.2282 2.7508-2.0771-.083848-.6007-.12577-1.2167-.12577-1.8479 0-2.5333.48333-4.7917 1.45-6.775.96667-1.9833 2.3-3.5333 4-4.65 1.7-1.1167 3.5833-1.675 5.65-1.675 2.5333 0 4.575.87499 6.125 2.625 1.55 1.75 2.4583 3.9083 2.725 6.475 1.2119-.077353 2.6032-.29432 4.1741-.6509.072623-.15894.14793-.31698.22592-.4741 1.1333-2.2833 2.6917-4.15 4.675-5.6 1.9833-1.45 4.2083-2.3083 6.675-2.575.63334-6.4667 1.8417-11.992 3.625-16.575 1.7833-4.5834 4.125-6.875 7.025-6.875 1.4333 0 2.625.64999 3.575 1.95s1.425 3.2667 1.425 5.9c0 3.7334-.91666 8.1-2.75 13.1-1.8333 5-4.2833 10.133-7.35 15.4.13333 1.9333.425 3.3167.875 4.15s1.025 1.25 1.725 1.25c.9 0 1.8167-.4 2.75-1.2.51816-.44414 1.1339-1.0527 1.8473-1.8256-.09819-.67259-.14728-1.3807-.14728-2.1244 0-2.3.48333-4.4417 1.45-6.425.96667-1.9833 2.3083-3.5583 4.025-4.725s3.6583-1.75 5.825-1.75c1.9333 0 3.4833.57499 4.65 1.725 1.1667 1.15 1.75 2.7083 1.75 4.675 0 2.3-.82499 4.275-2.475 5.925s-4.4416 2.9583-8.375 3.925c.83334 1.5333 2.4167 2.3 4.75 2.3 1.5 0 3.2083-.52499 5.125-1.575 1.1929-.65348 2.2857-1.4328 3.2784-2.3381 1.2476-1.5982 2.2298-2.9605 2.9466-4.0869.6-.96667 1.2083-2.1167 1.825-3.45s1.425-3.15 2.425-5.45c.63334-1.4667 1.95-2.2 3.95-2.2.93334 0 1.5833.083332 1.95.25.36667.16667.55.43333.55.8 0 .2-.066666.51666-.2.95s-.31666.86666-.55 1.3c-.6 1.2-.9 2.2167-.9 3.05 0 .5.175 1.05.525 1.65s.89166 1.35 1.625 2.25c1.0667 1.4 1.875 2.5917 2.425 3.575.55.98334.825 2.0583.825 3.225 0 1.4-.325 2.725-.975 3.975s-1.5583 2.2583-2.725 3.025c-1.1667.76667-2.5 1.15-4 1.15-1.7333 0-3.0583-.4-3.975-1.2s-1.375-1.7-1.375-2.7c0-.86667.31666-1.6167.95-2.25s1.5667-.95 2.8-.95c.43334 0 .94166.041666 1.525.125s1.025.14167 1.325.175c-.033333-.86667-.225-1.6833-.575-2.45s-.79166-1.5083-1.325-2.225-1.0333-1.3417-1.5-1.875c-1.0333 1.9667-2.0583 3.6-3.075 4.9-.18527.2369-.37359.47159-.56494.70407-.11751.21681-.25419.41546-.41006.59593-.43944.53446-.94342 1.0541-1.5119 1.5589-.2742.2841-.55356.56445-.83807.84106-.43834.43834-.89447.71656-1.3684.83467-.47395.3116-.97615.61671-1.5066.91533-2.25 1.2667-4.6583 1.9-7.225 1.9-3.5 0-6.2167-.94999-8.15-2.85-.3529-.34681-.67359-.71695-.96207-1.1104-.82185.8024-1.6845 1.5309-2.5879 2.1854-1.6333 1.1833-3.25 1.775-4.85 1.775-2.5333 0-4.4667-1.4833-5.8-4.45-1.4 1.7667-2.625 2.95-3.675 3.55s-2.275.9-3.675.9c-2.0333 0-3.7083-.75833-5.025-2.275-1.3167-1.5167-1.975-3.4917-1.975-5.925 0-.46337.01711-.92095.051328-1.3727zm-12.851 4.2727c1.0667 0 1.9917-.43333 2.775-1.3.78334-.86667 1.3083-2.1167 1.575-3.75-1.0333-.7-1.825-1.6167-2.375-2.75-.55-1.1333-.825-2.3333-.825-3.6 0-.53334.05-1.0667.15-1.6h-.25c-1.3333 0-2.4417.64166-3.325 1.925s-1.325 3.0917-1.325 5.425c0 1.8333.35833 3.2333 1.075 4.2s1.5583 1.45 2.525 1.45zm21.55.25c.63334 0 1.2667-.25833 1.9-.775.63334-.51667 1.4333-1.475 2.4-2.875-.33334-1.8-.5-3.8167-.5-6.05 0-.8.033333-2.1.1-3.9-1.8333.56667-3.3583 1.7917-4.575 3.675s-1.825 3.975-1.825 6.275c0 2.4333.83332 3.65 2.5 3.65zm14.4-37.3c-.63334 0-1.2667 1.125-1.9 3.375-.63334 2.25-1.175 5.1916-1.625 8.825s-.775 7.4333-.975 11.4c3.7334-8.1334 5.6-14.667 5.6-19.6 0-1.2667-.10833-2.25-.325-2.95s-.475-1.05-.775-1.05zm12.95 23.7c-1.2333 0-2.275.71666-3.125 2.15s-1.275 3.1667-1.275 5.2v.1c1.9667-.46667 3.5167-1.1667 4.65-2.1s1.7-2.0167 1.7-3.25c0-.63334-.175-1.1417-.525-1.525-.35-.38334-.825-.575-1.425-.575z" fill="#7A7C7C"/>
  </g>
</svg>
